X:200
T: Tonntracha Reatha (Na)
N: "The Billowing Waves"
S: "The Ted Furey Collection of Irish Traditional Tunes"
Z: B.Black
L: 1/8
M: 6/8
R: jig
K: G
dB |: BAB GBG |G2 g fdc|BAB GBG|d2 B cBA |
BAB GBG | G2 g fdc | BdB cec | d2 B cBA :|
G2 g fdg | fdg fdc | B2 g fdc | BdB cAF |
G2 g fdg | bag fdc | BdB cec | d2 B cBA :|
